favicon.svg

<?xml version="1.0" encoding="UTF-8" standalone="no"?>
<svg
   width="32"
   height="32"
   viewBox="0 0 32 32"
   version="1.1"
   id="svg2"
   sodipodi:docname="favicon.svg"
   inkscape:version="1.3.2 (091e20e, 2023-11-25, custom)"
   xmlns:inkscape="http://www.inkscape.org/namespaces/inkscape"
   xmlns:sodipodi="http://sodipodi.sourceforge.net/DTD/sodipodi-0.dtd"
   xmlns="http://www.w3.org/2000/svg"
   xmlns:svg="http://www.w3.org/2000/svg">
  <sodipodi:namedview
     id="namedview2"
     pagecolor="#505050"
     bordercolor="#ffffff"
     borderopacity="1"
     inkscape:showpageshadow="0"
     inkscape:pageopacity="0"
     inkscape:pagecheckerboard="1"
     inkscape:deskcolor="#505050"
     inkscape:zoom="31.78125"
     inkscape:cx="15.984267"
     inkscape:cy="16"
     inkscape:window-width="2240"
     inkscape:window-height="1294"
     inkscape:window-x="-11"
     inkscape:window-y="-11"
     inkscape:window-maximized="1"
     inkscape:current-layer="svg2" />
  <defs
     id="defs2">
    <linearGradient
       id="bg"
       x1="0"
       y1="0"
       x2="100%"
       y2="100%">
      <stop
         offset="0%"
         stop-color="var(--bg-top-color)"
         id="stop1" />
      <stop
         offset="100%"
         stop-color="var(--bg-bottom-color)"
         id="stop2" />
    </linearGradient>
  </defs>
  <style
     id="style2">
    :root {
      --bg-color: url(#bg);
      --bg-top-color: tomato;
      --bg-bottom-color: crimson;
      --fg-color: white;
    }
    @media (prefers-color-scheme: dark) {
      :root {
        --bg-top-color: #D32F2F;
        --bg-bottom-color: #B71C1C;
        --fg-color: whitesmoke;
      }
    }
  </style>
  <rect
     fill="var(--bg-color)"
     x="0"
     y="0"
     width="32"
     height="32"
     rx="4"
     id="rect2" />
  <path
     fill="var(--fg-color)"
     d="M 16.655921,5.3779842 15.330583,7.6557093 C 11.564164,6.5258465 8.1951567,7.0772816 7.0341677,9.0760663 c -1.5246739,2.6222377 1.0225,7.2663537 6.0534033,10.1508057 5.032178,2.885717 10.355595,2.753292 11.879006,0.132371 1.162264,-1.998797 -0.04128,-5.172442 -2.909574,-7.847323 l 1.324056,-2.2777507 c 3.988994,3.4834267 5.775123,8.0594597 3.827204,11.4104777 -2.407366,4.141558 -9.303359,4.312502 -15.414989,0.809819 C 5.6842217,17.949162 2.38378,11.930956 4.7911606,7.7906673 6.7390686,4.4409296 11.625021,3.688974 16.654647,5.3779842 Z M 21.026753,3.0000001 23.268438,4.2853986 16.797008,15.416927 14.55527,14.131523 Z M 9.1813857,26.428937 H 22.471157 v 2.570808 H 6.9629812 A 1.2917022,1.2828269 0 0 1 5.6492764,27.814604 1.2878182,1.2789696 0 0 1 5.8188285,27.071639 l 2.9121292,-5.009191 2.2417403,1.285379 z"
     id="path2" />
</svg>

<svg xmlns="http://www.w3.org/2000/svg" id="svg2" width="32" height="32" version="1.1">
  <defs id="defs2">
    <linearGradient id="bg" x1="0" x2="100%" y1="0" y2="100%">
      <stop id="stop1" offset="0%" stop-color="var(--bg-top-color)" />
      <stop id="stop2" offset="100%" stop-color="var(--bg-bottom-color)" />
    </linearGradient>
  </defs>
  <style>
    :root {
      --bg-top-color: tomato;
      --bg-bottom-color: crimson;
      --fg-color: white;
    }

    @media (prefers-color-scheme:dark) {
      :root {
        --bg-top-color: #D32F2F;
        --bg-bottom-color: #B71C1C;
        --fg-color: whitesmoke;
      }
    }
  </style>
  <rect width="32" height="32" x="0" y="0" fill="url(#bg)" rx="4" />
  <path fill="var(--fg-color)"
    d="M16.656 5.378 15.33 7.656c-3.767-1.13-7.136-.579-8.297 1.42-1.525 2.622 1.023 7.266 6.054 10.15 5.032 2.887 10.355 2.754 11.879.133 1.162-1.999-.042-5.172-2.91-7.847l1.324-2.278c3.99 3.484 5.775 8.06 3.827 11.41-2.407 4.142-9.303 4.313-15.415.81-6.109-3.505-9.41-9.523-7.002-13.663 1.948-3.35 6.834-4.102 11.864-2.413ZM21.026 3l2.242 1.285-6.471 11.132-2.242-1.285ZM9.182 26.429h13.29v2.57H6.963a1.292 1.283 0 0 1-1.314-1.184 1.288 1.279 0 0 1 .17-.743l2.912-5.01 2.242 1.286z" />
</svg>
